svgs/light/rectangle-ad.svg

<svg xmlns="http://www.w3.org/2000/svg" viewBox="0 0 576 512"><!--! Font Awesome Pro 6.4.0 by @fontawesome - https://fontawesome.com License - https://fontawesome.com/license (Commercial License) Copyright 2023 Fonticons, Inc. --><path d="M64 64C46.3 64 32 78.3 32 96V416c0 17.7 14.3 32 32 32H512c17.7 0 32-14.3 32-32V96c0-17.7-14.3-32-32-32H64zM0 96C0 60.7 28.7 32 64 32H512c35.3 0 64 28.7 64 64V416c0 35.3-28.7 64-64 64H64c-35.3 0-64-28.7-64-64V96zm214.6 73.4l72 160c3.6 8.1 0 17.5-8 21.2s-17.5 0-21.2-8L247.3 320H152.7l-10.2 22.6c-3.6 8.1-13.1 11.7-21.2 8s-11.7-13.1-8-21.2l72-160c2.6-5.7 8.3-9.4 14.6-9.4s12 3.7 14.6 9.4zM200 215l-32.9 73h65.7L200 215zm176 25a40 40 0 1 0 0 80 40 40 0 1 0 0-80zm40-19.9V176c0-8.8 7.2-16 16-16s16 7.2 16 16V280v56c0 8.8-7.2 16-16 16c-7.6 0-14-5.3-15.6-12.4C404.9 347.4 391 352 376 352c-39.8 0-72-32.2-72-72s32.2-72 72-72c14.8 0 28.6 4.5 40 12.1z"/></svg>

<svg xmlns="http://www.w3.org/2000/svg" viewBox="0 0 576 512"><!--! Font Awesome Pro 6.3.0 by @fontawesome - https://fontawesome.com License - https://fontawesome.com/license (Commercial License) Copyright 2023 Fonticons, Inc. --><path d="M286.6 329.4C290.2 337.5 286.6 346.1 278.6 350.6C270.5 354.2 261 350.6 257.4 342.6L247.3 320H152.7L142.6 342.6C138.1 350.6 129.5 354.2 121.4 350.6C113.4 346.1 109.8 337.5 113.4 329.4L185.4 169.4C187.1 163.7 193.7 160 200 160C206.3 160 212 163.7 214.6 169.4L286.6 329.4zM167.1 288H232.9L199.1 214.1L167.1 288zM416 176C416 167.2 423.2 160 432 160C440.8 160 448 167.2 448 176V336C448 344.8 440.8 352 432 352C424.4 352 418 346.7 416.4 339.6C404.9 347.4 390.1 352 376 352C336.2 352 304 319.8 304 280C304 240.2 336.2 208 376 208C390.8 208 404.6 212.5 416 220.1V176zM376 240C353.9 240 336 257.9 336 280C336 302.1 353.9 320 376 320C398.1 320 416 302.1 416 280C416 257.9 398.1 240 376 240zM0 96C0 60.65 28.65 32 64 32H512C547.3 32 576 60.65 576 96V416C576 451.3 547.3 480 512 480H64C28.65 480 0 451.3 0 416V96zM32 96V416C32 433.7 46.33 448 64 448H512C529.7 448 544 433.7 544 416V96C544 78.33 529.7 64 512 64H64C46.33 64 32 78.33 32 96z"/></svg>
